X: 15406
T: Gleanntán Frolics, The
R: slide
M: 12/8
K: Dmajor
d2B AFA d2B A2B|d2B AFE F2B B2c|
d2B AFA d2B A2B|d2B AFE [1 F2D D2 c:|2 D3 f2e]|
|:d3 d2e f2g f2e|d3 d2e f2b afe|
d3 d2e f2b afe|def afe d2B B2A:|

